assets/logo.svg

<svg width="182" height="44" xmlns="http://www.w3.org/2000/svg">

 <g>
  <title>background</title>
  <rect fill="none" id="canvas_background" height="402" width="582" y="-1" x="-1"/>
 </g>
 <g>
  <title>Layer 1</title>
  <path id="svg_1" fill="#7a33cc" d="m72,33.832l0,-22.176l14.976,0l0,4.192l-9.984,0l0,4.352l8.864,0l0,4.096l-8.864,0l0,5.344l10.72,0l0,4.192l-15.712,0z"/>
  <path id="svg_2" fill="#7a33cc" d="m89.9112,25.416c0,-1.216 0.192,-2.3573 0.576,-3.424c0.4054,-1.088 0.9814,-2.0267 1.7281,-2.816c0.7466,-0.8107 1.6533,-1.4507 2.7199,-1.92c1.0667,-0.4693 2.2827,-0.704 3.6481,-0.704c0.8959,0 1.7177,0.0853 2.4637,0.256c0.747,0.1493 1.472,0.3733 2.176,0.672l-0.992,3.808c-0.448,-0.1707 -0.938,-0.32 -1.472,-0.448c-0.533,-0.128 -1.1304,-0.192 -1.7917,-0.192c-1.408,0 -2.464,0.4373 -3.1681,1.312c-0.6826,0.8747 -1.024,2.0267 -1.024,3.456c0,1.5147 0.3201,2.688 0.9601,3.52c0.6613,0.832 1.8026,1.248 3.424,1.248c0.576,0 1.1947,-0.0533 1.8557,-0.16c0.662,-0.1067 1.27,-0.2773 1.824,-0.512l0.672,3.904c-0.554,0.2347 -1.248,0.4373 -2.08,0.608c-0.832,0.1707 -1.7491,0.256 -2.7517,0.256c-1.536,0 -2.8587,-0.224 -3.968,-0.672c-1.1094,-0.4693 -2.0267,-1.0987 -2.7521,-1.888c-0.704,-0.7893 -1.2266,-1.7173 -1.5679,-2.784c-0.32,-1.088 -0.4801,-2.2613 -0.4801,-3.52z"/>
  <path id="svg_3" fill="#7a33cc" d="m121.643,25.384c0,1.3227 -0.192,2.5387 -0.576,3.648c-0.384,1.088 -0.939,2.0267 -1.664,2.816c-0.726,0.768 -1.6,1.3653 -2.624,1.792c-1.003,0.4267 -2.134,0.64 -3.392,0.64c-1.238,0 -2.368,-0.2133 -3.392,-0.64c-1.003,-0.4267 -1.867,-1.024 -2.592,-1.792c-0.726,-0.7893 -1.291,-1.728 -1.696,-2.816c-0.406,-1.1093 -0.608,-2.3253 -0.608,-3.648c0,-1.3227 0.202,-2.528 0.608,-3.616c0.426,-1.088 1.002,-2.016 1.728,-2.784c0.746,-0.768 1.621,-1.3653 2.624,-1.792c1.024,-0.4267 2.133,-0.64 3.328,-0.64c1.216,0 2.325,0.2133 3.328,0.64c1.024,0.4267 1.898,1.024 2.624,1.792c0.725,0.768 1.29,1.696 1.696,2.784c0.405,1.088 0.608,2.2933 0.608,3.616zm-4.864,0c0,-1.472 -0.299,-2.624 -0.896,-3.456c-0.576,-0.8533 -1.408,-1.28 -2.496,-1.28c-1.088,0 -1.931,0.4267 -2.528,1.28c-0.598,0.832 -0.896,1.984 -0.896,3.456c0,1.472 0.298,2.6453 0.896,3.52c0.597,0.8533 1.44,1.28 2.528,1.28c1.088,0 1.92,-0.4267 2.496,-1.28c0.597,-0.8747 0.896,-2.048 0.896,-3.52z"/>
  <path id="svg_4" fill="#7a33cc" d="m132.056,34.152c-1.386,-0.0213 -2.517,-0.1707 -3.392,-0.448c-0.853,-0.2773 -1.536,-0.6613 -2.048,-1.152c-0.49,-0.512 -0.832,-1.12 -1.024,-1.824c-0.17,-0.7253 -0.256,-1.536 -0.256,-2.432l0,-18.528l4.768,-0.768l0,18.336c0,0.4267 0.032,0.8107 0.096,1.152c0.064,0.3413 0.182,0.6293 0.352,0.864c0.192,0.2347 0.459,0.4267 0.8,0.576c0.342,0.1493 0.8,0.2453 1.376,0.288l-0.672,3.936z"/>
  <path id="svg_5" fill="#7a33cc" d="m134.661,25.544c0,-1.4933 0.224,-2.7947 0.672,-3.904c0.47,-1.1307 1.078,-2.0693 1.824,-2.816c0.747,-0.7467 1.6,-1.312 2.56,-1.696c0.982,-0.384 1.984,-0.576 3.008,-0.576c2.39,0 4.278,0.736 5.664,2.208c1.387,1.4507 2.08,3.5947 2.08,6.432c0,0.2773 -0.01,0.5867 -0.032,0.928c-0.021,0.32 -0.042,0.608 -0.064,0.864l-10.816,0c0.107,0.9813 0.566,1.76 1.376,2.336c0.811,0.576 1.899,0.864 3.264,0.864c0.875,0 1.728,-0.0747 2.56,-0.224c0.854,-0.1707 1.547,-0.3733 2.08,-0.608l0.64,3.872c-0.256,0.128 -0.597,0.256 -1.024,0.384c-0.426,0.128 -0.906,0.2347 -1.44,0.32c-0.512,0.1067 -1.066,0.192 -1.664,0.256c-0.597,0.064 -1.194,0.096 -1.792,0.096c-1.514,0 -2.837,-0.224 -3.968,-0.672c-1.109,-0.448 -2.037,-1.056 -2.784,-1.824c-0.725,-0.7893 -1.269,-1.7173 -1.632,-2.784c-0.341,-1.0667 -0.512,-2.2187 -0.512,-3.456zm11.2,-1.824c-0.021,-0.4053 -0.096,-0.8 -0.224,-1.184c-0.106,-0.384 -0.288,-0.7253 -0.544,-1.024c-0.234,-0.2987 -0.544,-0.544 -0.928,-0.736c-0.362,-0.192 -0.821,-0.288 -1.376,-0.288c-0.533,0 -0.992,0.096 -1.376,0.288c-0.384,0.1707 -0.704,0.4053 -0.96,0.704c-0.256,0.2987 -0.458,0.6507 -0.608,1.056c-0.128,0.384 -0.224,0.7787 -0.288,1.184l6.304,0z"/>
  <path id="svg_6" fill="#7a33cc" d="m153.989,12.808l4.768,-0.768l0,4.96l5.728,0l0,3.968l-5.728,0l0,5.92c0,1.0027 0.17,1.8027 0.512,2.4c0.362,0.5973 1.077,0.896 2.144,0.896c0.512,0 1.034,-0.0427 1.568,-0.128c0.554,-0.1067 1.056,-0.2453 1.504,-0.416l0.672,3.712c-0.576,0.2347 -1.216,0.4373 -1.92,0.608c-0.704,0.1707 -1.568,0.256 -2.592,0.256c-1.302,0 -2.379,-0.1707 -3.232,-0.512c-0.854,-0.3627 -1.536,-0.8533 -2.048,-1.472c-0.512,-0.64 -0.875,-1.408 -1.088,-2.304c-0.192,-0.896 -0.288,-1.888 -0.288,-2.976l0,-14.144z"/>
  <path id="svg_7" fill="#7a33cc" d="m174.174,30.504c0.47,0 0.918,-0.0107 1.345,-0.032c0.426,-0.0213 0.767,-0.0533 1.024,-0.096l0,-3.616c-0.192,-0.0427 -0.481,-0.0853 -0.865,-0.128c-0.384,-0.0427 -0.736,-0.064 -1.056,-0.064c-0.448,0 -0.874,0.032 -1.28,0.096c-0.384,0.0427 -0.725,0.1387 -1.024,0.288c-0.298,0.1493 -0.533,0.352 -0.703,0.608c-0.171,0.256 -0.257,0.576 -0.257,0.96c0,0.7467 0.246,1.2693 0.736,1.568c0.512,0.2773 1.206,0.416 2.08,0.416zm-0.384,-13.952c1.408,0 2.582,0.16 3.521,0.48c0.938,0.32 1.685,0.7787 2.239,1.376c0.576,0.5973 0.982,1.3227 1.217,2.176c0.234,0.8533 0.351,1.8027 0.351,2.848l0,9.92c-0.682,0.1493 -1.631,0.32 -2.847,0.512c-1.217,0.2133 -2.689,0.32 -4.417,0.32c-1.087,0 -2.079,-0.096 -2.975,-0.288c-0.875,-0.192 -1.633,-0.5013 -2.273,-0.928c-0.64,-0.448 -1.13,-1.024 -1.472,-1.728c-0.341,-0.704 -0.512,-1.568 -0.512,-2.592c0,-0.9813 0.192,-1.8133 0.577,-2.496c0.405,-0.6827 0.938,-1.2267 1.6,-1.632c0.661,-0.4053 1.418,-0.6933 2.272,-0.864c0.853,-0.192 1.738,-0.288 2.656,-0.288c0.618,0 1.162,0.032 1.631,0.096c0.491,0.0427 0.886,0.1067 1.185,0.192l0,-0.448c0,-0.8107 -0.246,-1.4613 -0.736,-1.952c-0.491,-0.4907 -1.344,-0.736 -2.561,-0.736c-0.81,0 -1.61,0.064 -2.4,0.192c-0.789,0.1067 -1.472,0.2667 -2.047,0.48l-0.609,-3.84c0.278,-0.0853 0.619,-0.1707 1.025,-0.256c0.426,-0.1067 0.885,-0.192 1.375,-0.256c0.491,-0.0853 1.003,-0.1493 1.537,-0.192c0.554,-0.064 1.109,-0.096 1.663,-0.096z"/>
  <path id="svg_8" fill="#29A361" d="m14.642,1.84962l-4.5749,8.73648c-0.29542,0.564 -0.10089,1.2693 0.4375,1.5864l7.1635,4.2197c0.5459,0.3215 1.2398,0.1238 1.5502,-0.4418l8.7562,-15.94976l-10.3344,0c-1.2509,0 -2.4015,0.70953 -2.9981,1.84898z"/>
  <path id="svg_9" fill="#248F55" d="m27.974,0l-8.7558,15.95c-0.311,0.5654 -1.0045,0.7636 -1.5501,0.4423l-1.8698,-1.101c0.4559,0.0761 0.9301,-0.141 1.1715,-0.5814l8.077,-14.7099l2.9272,0z"/>
  <path id="svg_10" fill="#34CB79" d="m37.5549,8.45922l-3.1554,-6.51021c-0.5789,-1.19444 -1.7585,-1.94837 -3.0482,-1.94837l-9.1233,0l7.0048,12.31596c-0.0229,0.0107 -0.046,0.0214 -0.069,0.0321c-0.4406,0.2055 -0.4226,0.8606 0.0285,1.0401l6.0487,2.4072c0.2803,0.1116 0.5948,-0.0335 0.7024,-0.3239l2.3317,-6.29257c0.1724,-0.46547 -0.2803,-0.91462 -0.7202,-0.72031z"/>
  <path id="svg_11" fill="#2FB86E" d="m38.2751,9.17899l-2.3324,6.29251c-0.1071,0.2912 -0.4221,0.4364 -0.7021,0.3243l-1.8302,-0.7287l2.1818,-5.88811c0.124,-0.33393 -0.0741,-0.65911 -0.3583,-0.74441c-0.2707,-0.08132 -0.5018,-0.26504 -0.6283,-0.526l-2.8891,-5.95983c-0.5786,-1.19404 -1.7578,-1.94875 -3.048,-1.94875l2.6829,0c1.2893,0 2.4685,0.75471 3.048,1.94875l3.1552,6.5107c0.4405,-0.19421 0.8925,0.25416 0.7205,0.71954z"/>
  <path id="svg_12" fill="#29A361" d="m31.4594,33.5593c-0.085,-0.3615 -0.535,-0.5163 -0.8096,-0.2318l-4.7276,4.8993c-0.1886,0.1955 -0.1886,0.5123 0,0.7077l4.7458,4.9181c0.2728,0.2827 0.7182,0.1318 0.8078,-0.2235l6.979,0c1.2849,0 2.4608,-0.7482 3.0421,-1.9357l3.9822,-8.1342l-14.0197,0l0,0.0001z"/>
  <path id="svg_13" fill="#248F55" d="m37.3508,33.5594l2.2629,3.5485c0.5116,0.8022 0.5682,1.8274 0.1483,2.6849l-0.9307,1.9007c-0.5804,1.1871 -1.7568,1.9358 -3.0413,1.9358l2.6647,0c1.2845,0 2.4608,-0.7487 3.0423,-1.9358l3.9819,-8.134l-8.1281,0l0,-0.0001z"/>
  <path id="svg_14" fill="#29A361" d="m21.9354,42.6939l0,-8.6583c0,-0.6507 -0.5091,-1.1784 -1.1371,-1.1784l-18.73043,0l4.82025,9.1709c0.59747,1.1368 1.74657,1.8442 2.9956,1.8442l10.91458,0c0.6279,0 1.1371,-0.5275 1.1371,-1.1784z"/>
  <path id="svg_15" fill="#248F55" d="m10.0115,32.858l-4.15969,7.1993l-3.78394,-7.1993l7.94363,0z"/>
  <path id="svg_16" fill="#248F55" d="m21.935,34.0358l0,8.6586c0,0.6506 -0.509,1.178 -1.1367,1.178l-2.9834,0c0.6278,0 1.1368,-0.5274 1.1368,-1.178l0,-8.6586c0,-0.6506 -0.509,-1.178 -1.1368,-1.178l2.9834,0c0.6277,-0.0001 1.1367,0.5274 1.1367,1.178z"/>
  <path id="svg_17" fill="#34CB79" d="m12.7847,25.2066l-0.8411,-6.5599c-0.0416,-0.3241 -0.3288,-0.5518 -0.6415,-0.5088l-6.35426,0.875c-0.4785,0.0659 -0.65682,0.6691 -0.32907,1.0047l-4.01025,5.9901c-0.73528,1.0983 -0.8099,2.5323 -0.19293,3.7061l4.36396,8.3029l7.08585,-12.266c0.0025,0.0019 0.0049,0.0039 0.0075,0.0059c0.4044,0.3181 0.9786,-0.0284 0.9118,-0.55z"/>
  <path id="svg_18" fill="#2FB86E" d="m11.8725,25.7566c-0.002,-0.0021 -0.0048,-0.004 -0.0068,-0.006l-7.08609,12.2657l-1.45734,-2.7725l5.7675,-9.9852l0.15993,-0.277c0.08747,-0.1514 0.25838,-0.2168 0.42553,-0.1832c0.00085,0.0002 0.00169,0.0003 0.00254,0.0005c0.35563,0.0657 0.72033,-0.2413 0.66573,-0.6627l-0.73886,-5.765l1.69686,-0.2332c0.313,-0.043 0.6008,0.1852 0.6423,0.5084l0.8412,6.5608c0.0668,0.5213 -0.5079,0.8676 -0.9125,0.5494z"/>
  <path id="svg_19" fill="#34CB79" d="m47.3959,25.5569l-5.4856,-8.2372c-0.3364,-0.5053 -0.991,-0.6582 -1.5041,-0.3513l-7.1488,4.2751c-0.5674,0.3393 -0.7415,1.104 -0.3803,1.6704l10.0778,15.8012l4.6757,-9.5508c0.5659,-1.156 0.4759,-2.5404 -0.2347,-3.6074z"/>
  <path id="svg_20" fill="#2FB86E" d="m47.6305,29.1645l-4.6764,9.5503l-1.5684,-2.4602l3.4711,-7.0902c0.5659,-1.156 0.4761,-2.5402 -0.2347,-3.6072l-5.2915,-7.9449l1.0758,-0.6436c0.5129,-0.3073 1.1677,-0.1542 1.5038,0.3513l5.4857,8.2373c0.7107,1.067 0.8005,2.4512 0.2346,3.6072z"/>
 </g>
</svg>

<svg width="182" height="44" viewBox="0 0 182 44" fill="none" xmlns="http://www.w3.org/2000/svg">
<path d="M72 33.832V11.656H86.976V15.848H76.992V20.2H85.856V24.296H76.992V29.64H87.712V33.832H72Z" fill="#322153"/>
<path d="M89.9112 25.416C89.9112 24.2 90.1032 23.0587 90.4872 21.992C90.8926 20.904 91.4686 19.9653 92.2153 19.176C92.9619 18.3653 93.8686 17.7253 94.9352 17.256C96.0019 16.7867 97.2179 16.552 98.5833 16.552C99.4792 16.552 100.301 16.6373 101.047 16.808C101.794 16.9573 102.519 17.1813 103.223 17.48L102.231 21.288C101.783 21.1173 101.293 20.968 100.759 20.84C100.226 20.712 99.6286 20.648 98.9673 20.648C97.5593 20.648 96.5033 21.0853 95.7992 21.96C95.1166 22.8347 94.7752 23.9867 94.7752 25.416C94.7752 26.9307 95.0953 28.104 95.7353 28.936C96.3966 29.768 97.5379 30.184 99.1593 30.184C99.7353 30.184 100.354 30.1307 101.015 30.024C101.677 29.9173 102.285 29.7467 102.839 29.512L103.511 33.416C102.957 33.6507 102.263 33.8533 101.431 34.024C100.599 34.1947 99.6819 34.28 98.6793 34.28C97.1433 34.28 95.8206 34.056 94.7113 33.608C93.6019 33.1387 92.6846 32.5093 91.9592 31.72C91.2552 30.9307 90.7326 30.0027 90.3913 28.936C90.0713 27.848 89.9112 26.6747 89.9112 25.416Z" fill="#322153"/>
<path d="M121.643 25.384C121.643 26.7067 121.451 27.9227 121.067 29.032C120.683 30.12 120.128 31.0587 119.403 31.848C118.677 32.616 117.803 33.2133 116.779 33.64C115.776 34.0667 114.645 34.28 113.387 34.28C112.149 34.28 111.019 34.0667 109.995 33.64C108.992 33.2133 108.128 32.616 107.403 31.848C106.677 31.0587 106.112 30.12 105.707 29.032C105.301 27.9227 105.099 26.7067 105.099 25.384C105.099 24.0613 105.301 22.856 105.707 21.768C106.133 20.68 106.709 19.752 107.435 18.984C108.181 18.216 109.056 17.6187 110.059 17.192C111.083 16.7653 112.192 16.552 113.387 16.552C114.603 16.552 115.712 16.7653 116.715 17.192C117.739 17.6187 118.613 18.216 119.339 18.984C120.064 19.752 120.629 20.68 121.035 21.768C121.44 22.856 121.643 24.0613 121.643 25.384ZM116.779 25.384C116.779 23.912 116.48 22.76 115.883 21.928C115.307 21.0747 114.475 20.648 113.387 20.648C112.299 20.648 111.456 21.0747 110.859 21.928C110.261 22.76 109.963 23.912 109.963 25.384C109.963 26.856 110.261 28.0293 110.859 28.904C111.456 29.7573 112.299 30.184 113.387 30.184C114.475 30.184 115.307 29.7573 115.883 28.904C116.48 28.0293 116.779 26.856 116.779 25.384Z" fill="#322153"/>
<path d="M132.056 34.152C130.67 34.1307 129.539 33.9813 128.664 33.704C127.811 33.4267 127.128 33.0427 126.616 32.552C126.126 32.04 125.784 31.432 125.592 30.728C125.422 30.0027 125.336 29.192 125.336 28.296V9.768L130.104 9V27.336C130.104 27.7627 130.136 28.1467 130.2 28.488C130.264 28.8293 130.382 29.1173 130.552 29.352C130.744 29.5867 131.011 29.7787 131.352 29.928C131.694 30.0773 132.152 30.1733 132.728 30.216L132.056 34.152Z" fill="#322153"/>
<path d="M134.661 25.544C134.661 24.0507 134.885 22.7493 135.333 21.64C135.803 20.5093 136.411 19.5707 137.157 18.824C137.904 18.0773 138.757 17.512 139.717 17.128C140.699 16.744 141.701 16.552 142.725 16.552C145.115 16.552 147.003 17.288 148.389 18.76C149.776 20.2107 150.469 22.3547 150.469 25.192C150.469 25.4693 150.459 25.7787 150.437 26.12C150.416 26.44 150.395 26.728 150.373 26.984H139.557C139.664 27.9653 140.123 28.744 140.933 29.32C141.744 29.896 142.832 30.184 144.197 30.184C145.072 30.184 145.925 30.1093 146.757 29.96C147.611 29.7893 148.304 29.5867 148.837 29.352L149.477 33.224C149.221 33.352 148.88 33.48 148.453 33.608C148.027 33.736 147.547 33.8427 147.013 33.928C146.501 34.0347 145.947 34.12 145.349 34.184C144.752 34.248 144.155 34.28 143.557 34.28C142.043 34.28 140.72 34.056 139.589 33.608C138.48 33.16 137.552 32.552 136.805 31.784C136.08 30.9947 135.536 30.0667 135.173 29C134.832 27.9333 134.661 26.7813 134.661 25.544ZM145.861 23.72C145.84 23.3147 145.765 22.92 145.637 22.536C145.531 22.152 145.349 21.8107 145.093 21.512C144.859 21.2133 144.549 20.968 144.165 20.776C143.803 20.584 143.344 20.488 142.789 20.488C142.256 20.488 141.797 20.584 141.413 20.776C141.029 20.9467 140.709 21.1813 140.453 21.48C140.197 21.7787 139.995 22.1307 139.845 22.536C139.717 22.92 139.621 23.3147 139.557 23.72H145.861Z" fill="#322153"/>
<path d="M153.989 12.808L158.757 12.04V17H164.485V20.968H158.757V26.888C158.757 27.8907 158.927 28.6907 159.269 29.288C159.631 29.8853 160.346 30.184 161.413 30.184C161.925 30.184 162.447 30.1413 162.981 30.056C163.535 29.9493 164.037 29.8107 164.485 29.64L165.157 33.352C164.581 33.5867 163.941 33.7893 163.237 33.96C162.533 34.1307 161.669 34.216 160.645 34.216C159.343 34.216 158.266 34.0453 157.413 33.704C156.559 33.3413 155.877 32.8507 155.365 32.232C154.853 31.592 154.49 30.824 154.277 29.928C154.085 29.032 153.989 28.04 153.989 26.952V12.808Z" fill="#322153"/>
<path d="M174.174 30.504C174.644 30.504 175.092 30.4933 175.519 30.472C175.945 30.4507 176.286 30.4187 176.543 30.376V26.76C176.351 26.7173 176.062 26.6747 175.678 26.632C175.294 26.5893 174.942 26.568 174.622 26.568C174.174 26.568 173.748 26.6 173.342 26.664C172.958 26.7067 172.617 26.8027 172.318 26.952C172.02 27.1013 171.785 27.304 171.615 27.56C171.444 27.816 171.358 28.136 171.358 28.52C171.358 29.2667 171.604 29.7893 172.094 30.088C172.606 30.3653 173.3 30.504 174.174 30.504ZM173.79 16.552C175.198 16.552 176.372 16.712 177.311 17.032C178.249 17.352 178.996 17.8107 179.55 18.408C180.126 19.0053 180.532 19.7307 180.767 20.584C181.001 21.4373 181.118 22.3867 181.118 23.432V33.352C180.436 33.5013 179.487 33.672 178.271 33.864C177.054 34.0773 175.582 34.184 173.854 34.184C172.767 34.184 171.775 34.088 170.879 33.896C170.004 33.704 169.246 33.3947 168.606 32.968C167.966 32.52 167.476 31.944 167.134 31.24C166.793 30.536 166.622 29.672 166.622 28.648C166.622 27.6667 166.814 26.8347 167.199 26.152C167.604 25.4693 168.137 24.9253 168.799 24.52C169.46 24.1147 170.217 23.8267 171.071 23.656C171.924 23.464 172.809 23.368 173.727 23.368C174.345 23.368 174.889 23.4 175.358 23.464C175.849 23.5067 176.244 23.5707 176.543 23.656V23.208C176.543 22.3973 176.297 21.7467 175.807 21.256C175.316 20.7653 174.463 20.52 173.246 20.52C172.436 20.52 171.636 20.584 170.846 20.712C170.057 20.8187 169.374 20.9787 168.799 21.192L168.19 17.352C168.468 17.2667 168.809 17.1813 169.215 17.096C169.641 16.9893 170.1 16.904 170.59 16.84C171.081 16.7547 171.593 16.6907 172.127 16.648C172.681 16.584 173.236 16.552 173.79 16.552Z" fill="#322153"/>
<path d="M14.642 1.84962L10.0671 10.5861C9.77168 11.1501 9.96621 11.8554 10.5046 12.1725L17.6681 16.3922C18.214 16.7137 18.9079 16.516 19.2183 15.9504L27.9745 0.000644684H17.6401C16.3892 0.000644684 15.2386 0.710173 14.642 1.84962Z" fill="#29A361"/>
<path d="M27.974 0L19.2182 15.95C18.9072 16.5154 18.2137 16.7136 17.6681 16.3923L15.7983 15.2913C16.2542 15.3674 16.7284 15.1503 16.9698 14.7099L25.0468 0H27.974Z" fill="#248F55"/>
<path d="M37.5549 8.45922L34.3995 1.94901C33.8206 0.754574 32.641 0.000644684 31.3513 0.000644684H22.228L29.2328 12.3166C29.2099 12.3273 29.1868 12.338 29.1638 12.3487C28.7232 12.5542 28.7412 13.2093 29.1923 13.3888L35.241 15.796C35.5213 15.9076 35.8358 15.7625 35.9434 15.4721L38.2751 9.17953C38.4475 8.71406 37.9948 8.26491 37.5549 8.45922Z" fill="#34CB79"/>
<path d="M38.2751 9.17899L35.9427 15.4715C35.8356 15.7627 35.5206 15.9079 35.2406 15.7958L33.4104 15.0671L35.5922 9.17899C35.7162 8.84506 35.5181 8.51988 35.2339 8.43458C34.9632 8.35326 34.7321 8.16954 34.6056 7.90858L31.7165 1.94875C31.1379 0.754706 29.9587 0 28.6685 0H31.3514C32.6407 0 33.8199 0.754706 34.3994 1.94875L37.5546 8.45945C37.9951 8.26524 38.4471 8.71361 38.2751 9.17899Z" fill="#2FB86E"/>
<path d="M31.4594 33.5593C31.3744 33.1978 30.9244 33.043 30.6498 33.3275L25.9222 38.2268C25.7336 38.4223 25.7336 38.7391 25.9222 38.9345L30.668 43.8526C30.9408 44.1353 31.3862 43.9844 31.4758 43.6291H38.4548C39.7397 43.6291 40.9156 42.8809 41.4969 41.6934L45.4791 33.5592H31.4594V33.5593Z" fill="#29A361"/>
<path d="M37.3508 33.5594L39.6137 37.1079C40.1253 37.9101 40.1819 38.9353 39.762 39.7928L38.8313 41.6935C38.2509 42.8806 37.0745 43.6293 35.79 43.6293H38.4547C39.7392 43.6293 40.9155 42.8806 41.497 41.6935L45.4789 33.5595H37.3508V33.5594Z" fill="#248F55"/>
<path d="M21.9354 42.6939V34.0356C21.9354 33.3849 21.4263 32.8572 20.7983 32.8572H2.06787L6.88812 42.0281C7.48559 43.1649 8.63469 43.8723 9.88372 43.8723H20.7983C21.4262 43.8723 21.9354 43.3448 21.9354 42.6939Z" fill="#29A361"/>
<path d="M10.0115 32.858L5.85181 40.0573L2.06787 32.858H10.0115Z" fill="#248F55"/>
<path d="M21.935 34.0358V42.6944C21.935 43.345 21.426 43.8724 20.7983 43.8724H17.8149C18.4427 43.8724 18.9517 43.345 18.9517 42.6944V34.0358C18.9517 33.3852 18.4427 32.8578 17.8149 32.8578H20.7983C21.426 32.8577 21.935 33.3852 21.935 34.0358Z" fill="#248F55"/>
<path d="M12.7847 25.2066L11.9436 18.6467C11.902 18.3226 11.6148 18.0949 11.3021 18.1379L4.94784 19.0129C4.46934 19.0788 4.29102 19.682 4.61877 20.0176L0.608522 26.0077C-0.126759 27.106 -0.201384 28.54 0.415585 29.7138L4.77955 38.0167L11.8654 25.7507C11.8679 25.7526 11.8703 25.7546 11.8729 25.7566C12.2773 26.0747 12.8515 25.7282 12.7847 25.2066Z" fill="#34CB79"/>
<path d="M11.8725 25.7566C11.8705 25.7545 11.8677 25.7526 11.8657 25.7506L4.77961 38.0163L3.32227 35.2438L9.08977 25.2586L9.2497 24.9816C9.33717 24.8302 9.50808 24.7648 9.67523 24.7984C9.67608 24.7986 9.67692 24.7987 9.67777 24.7989C10.0334 24.8646 10.3981 24.5576 10.3435 24.1362L9.60464 18.3712L11.3015 18.138C11.6145 18.095 11.9023 18.3232 11.9438 18.6464L12.785 25.2072C12.8518 25.7285 12.2771 26.0748 11.8725 25.7566Z" fill="#2FB86E"/>
<path d="M47.3959 25.5569L41.9103 17.3197C41.5739 16.8144 40.9193 16.6615 40.4062 16.9684L33.2574 21.2435C32.69 21.5828 32.5159 22.3475 32.8771 22.9139L42.9549 38.7151L47.6306 29.1643C48.1965 28.0083 48.1065 26.6239 47.3959 25.5569Z" fill="#34CB79"/>
<path d="M47.6305 29.1645L42.9541 38.7148L41.3857 36.2546L44.8568 29.1644C45.4227 28.0084 45.3329 26.6242 44.6221 25.5572L39.3306 17.6123L40.4064 16.9687C40.9193 16.6614 41.5741 16.8145 41.9102 17.32L47.3959 25.5573C48.1066 26.6243 48.1964 28.0085 47.6305 29.1645Z" fill="#2FB86E"/>
</svg>
